!!!COA:	Josquin des Prez
!!!CDT:	~1450-1521/08/27
!!!OPR:	Missa Di dadi
!!!ONM:	1
!!!OTL:	Kyrie
!!!AGN:	Mass; Kyrie
!!!SCT:	NJE 9.3
!!!SCA:	New Josquin Edition 9.3
!!!voices:	4
!!!voices-OPR:	4
**kern	**kern	**kern	**kern
*staff4	*staff3	*staff2	*staff1
*Ivox	*Ivox	*Ivox	*Ivox
*I"Bassus	*I"Tenor	*I"Altus	*I"Superius
*I'B	*I'T	*I'A	*I'S
*>A	*>A	*>A	*>A
*clefF4	*clefGv2	*clefGv2	*clefG2
*k[b-]	*k[b-]	*k[b-]	*k[b-]
*M3/1	*M3/1	*M3/1	*M3/1
*met(O)	*met(O)	*met(O)	*met(O)
*	*rscale:1/2	*	*
=1-	=1-	=1-	=1-
!!section: Kyrie I
!!!OMD: Kyrie I
!	!LO:TX:Z=10:t=Canon&colon; Two dice with faces two over one	!	!
0.r	0.r	1.G	0g
.	.	2A/	.
.	.	1B-	1g
=2	=2-	=2	=2
0.r	0.r	1c	1e
.	.	1A	1.f
.	.	[1d	.
.	.	.	4g/
.	.	.	4a/
=3	=3	=3	=3
0.r	0.r	1d]	1.b-
.	.	0G	.
.	.	.	4a/
.	.	.	4g/
.	.	.	1b-
=4	=4-	=4	=4
0.r	0.r	0.c	2a/
.	.	.	1g
.	.	.	2f/
.	.	.	1e
=5	=5	=5	=5
0.G	0G	2B-\	0d
.	.	2G/	.
.	.	2.B-\	.
.	.	4c\	.
.	1B-	2d\	2r
.	.	[2e-i\	[2g/
=6	=6-	=6	=6
2E-i\	1c	4e-\]	2g/]
.	.	4d\	.
1F	.	4c\	2.a/
.	.	4B-\	.
.	0d	2A/	.
.	.	.	4g/
4BB-/	.	2B-\	4f#i/
4C/	.	.	4e/
1D	.	1A	1f#i
=7	=7	=7	=7
0GG	1r	0G	2.g/
.	.	.	4f/
.	1B-	.	2d/
.	.	.	2.e-/
1E-	1G	1r	.
.	.	.	4B-/
.	.	.	2c/
=8	=8-	=8	=8
0.D	1A	0.F	2d/
.	.	.	1f
.	0B-	.	.
.	.	.	4e/
.	.	.	4d/
.	.	.	2.f/
.	.	.	4g/
=9	=9	=9	=9
1C	1c	1G	1e
1.BB-	0d	[0D	0f
2AA/	.	.	.
=10	=10-	=10	=10
1GG	1B-	1D]	1g
0FF	0A	0F	0a
=11	=11	=11	=11
2.GG/	0G	2.D/	2r
.	.	.	1b-
4AA/	.	4C/	.
2BB-/	.	2D/	.
2C/	.	2E/	2g/
2AA/	[1F	2C/	2.a/
[2D\	.	[2F/	.
.	.	.	4d/
=12	=12-	=12	=12
2D\]	1F]	2F/]	1d
2BB-/	.	2D/	.
2C/	1A	2E/	2r
1D	.	2F/	1f
.	1B-	2D/	.
2BB-/	.	[2G/	2g/
=13	=13	=13	=13
1AA	1c	2G/]	1a
.	.	2F/	.
1GG	1B-	2.G/	1.b-
.	.	4A/	.
[1E-	[1G	2B-\	.
.	.	2c\	4a/
.	.	.	4g/
=14	=14-	=14	=14
1E-]	1G]	4G/	2.b-\
.	.	4A/	.
.	.	4B-\	.
.	.	4c\	4a/
0D	0A	[0dl	2f/
.	.	.	1g
.	.	.	2f#i/
=15	=15	=15	=15
0.GGl	0.Gl	0.d]	0.gl
*	*rscale:1	*	*
!!LO:LB:i:g=z
=16||	=16||	=16||	=16||
*>B	*>B	*>B	*>B
*clefF4	*clefGv2	*clefGv2	*clefG2
*k[b-]	*k[b-]	*k[b-]	*k[b-]
*M2/1	*M2/1	*M2/1	*M2/1
*met(C|)	*met(C|)	*met(C|)	*met(C|)
!!!OMD: Christe
!!section: Christe
1.G	0r	0G	0r
4F\	.	.	.
4E\	.	.	.
=17	=17	=17	=17
1F	0r	1A	0r
[1G	.	[1B-	.
=18	=18	=18	=18
2G\]	0r	2B-\]	0d
4F\	.	2A/	.
4E\	.	.	.
1D	.	1B-	.
=19	=19	=19	=19
1C	0r	1c	1e
1BB-	.	2d\	[1f
.	.	[2d\	.
=20	=20	=20	=20
1.D	0r	2d\]	2f/]
.	.	4c\	2e/
.	.	4B-\	.
.	.	1A	1f
2F\	.	.	.
=21	=21	=21	=21
1E	0r	1G	1g
[1D	.	[1F	2a/
.	.	.	[2a/
=22	=22	=22	=22
1D]	0r	1F]	2a/]
.	.	.	4g/
.	.	.	4f/
1C	.	1G	1e
=23	=23	=23	=23
1BB-	0r	1.B-	1r
1GG	.	.	[1d
.	.	4A/	.
.	.	4G/	.
=24	=24	=24	=24
[0D	0r	0A	2d/]
.	.	.	2e/
.	.	.	[1f
=25	=25	=25	=25
1D]	0r	1r	2f/]
.	.	.	4g/
.	.	.	4a/
[1G	.	[1d	[1b-
=26	=26	=26	=26
2G\]	0r	0d]	2b-\]
4F\	.	.	4a/
4E\	.	.	4g/
1G	.	.	1b-
=27	=27	=27	=27
1.F	0r	2c\	1.a
.	.	1A	.
4E\	.	2B-\	4g/
4D\	.	.	4f/
=28	=28	=28	=28
2C/	0r	1.c	1a
2D\	.	.	.
[1E-i	.	.	[1g
.	.	2B-\	.
=29	=29	=29	=29
2E-\]	0r	2G/	2g/]
2D\	.	2A/	4f/
.	.	.	4e/
2BB-/	.	[1B-	1g
2C/	.	.	.
=30	=30	=30	=30
1.D	0r	2B-\]	1.f
.	.	2A/	.
.	.	2F/	.
4C/	.	2G/	4e/
4BB-/	.	.	4d/
=31	=31	=31	=31
2AA/	0r	0A	1f
2D\	.	.	.
2C/	.	.	2e/
[2F\	.	.	[2a/
=32	=32	=32	=32
4F\]	0r	1D	2a/]
4E\	.	.	.
2D\	.	.	2f/
4C/	.	2E/	2g/
4BB-/	.	.	.
2AA/	.	2F/	2a/
=33	=33	=33	=33
1GG	0r	2G/	2d/
.	.	2B-\	1g
[1D	.	1A	.
.	.	.	[2f/
=34	=34	=34	=34
2D\]	0r	1d	2f/]
2BB-/	.	.	1b-
1F	.	2c\	.
.	.	2A/	[2a/
=35	=35	=35	=35
2G\	0r	2.B-\	2a/]
2E\	.	.	2g/
.	.	4c\	.
2F\	.	2A/	2f/
[2G\	.	2G/	[2b-\
=36	=36	=36	=36
2G\]	0r	2d\	4b-\]
.	.	.	4a/
1A	.	2A/	2.cc\
.	.	2.c\	.
.	.	.	4b-\
2F\	.	.	4a/
.	.	4B-\	4g/
=37	=37	=37	=37
2G\	0r	2G/	2.b-\
2E-\	.	2.B-\	.
.	.	.	4a/
2F\	.	.	4g/
.	.	4A/	4f/
2D\	.	2F/	[2a/
=38	=38	=38	=38
1E-i	0r	1G	4a/]
.	.	.	4g/
.	.	.	1g
1D	.	1A	.
.	.	.	2f#i/
=39	=39	=39	=39
0GGl	0r	0Gl	0gl
!!LO:LB:i:g=z
=40||	=40||	=40||	=40||
*>C	*>C	*>C	*>C
*clefF4	*clefGv2	*clefGv2	*clefG2
*k[b-]	*k[b-]	*k[b-]	*k[b-]
*	*rscale:1/2	*	*
*M3/1	*M3/0	*M3/1	*M3/1
*met(O|)	*met(O|)	*met(O|)	*met(O|)
!!!OMD: Kyrie II
!!section: Kyrie II
!	!LO:TX:Z=10:t=Canon&colon; Two dice with faces two over one	!	!
[0.B-	0.r	0.r	1.d
.	.	.	2e/
.	.	.	1f
=41	=41-	=41	=41
1B-]	0.r	0.r	1g
0A	.	.	2.a/
.	.	.	4b-\
.	.	.	1cc
=42	=42	=42	=42
1G	0.r	[0.d	1.b-
1F	.	.	.
.	.	.	1a
1G	.	.	.
.	.	.	2g/
=43	=43-	=43	=43
1B-	0.r	1d]	1.g
0A	.	0D	.
.	.	.	2f#i/
.	.	.	2f#i/
.	.	.	2e/
=44	=44	=44	=44
0.G	0G	2r	1g
.	.	2.d\	.
.	.	.	2r
.	.	4c\	.
.	.	1B-	1d
.	1B-	.	.
.	.	4A/	4c/
.	.	4G/	4B-/
=45	=45-	=45	=45
1r	1c	2.F/	2.A/
.	.	4E/	4G/
1r	0d	2F/	2A/
.	.	1G	2B-/
1D	.	.	1A
.	.	2F#i/	.
=46	=46	=46	=46
0GG	1r	1.G	2G/
.	.	.	2.B-/
.	1B-	.	.
.	.	.	4c/
.	.	4F/	1d
.	.	4E/	.
2BB-/	1G	2D/	.
2C/	.	[2E/	2G/
=47	=47-	=47	=47
2AA/	1A	2E/]	2c/
1D	.	2F/	2A/
.	0B-	2D/	0d
1BB-	.	1G	.
2D\	.	2F/	.
=48	=48	=48	=48
2E\	1c	2G/	2r
2F\	.	2.A/	2c/
2D\	0d	.	2f/
.	.	4F/	.
1G	.	2B-\	2g/
.	.	1A	1a
2F#i\	.	.	.
=49	=49-	=49	=49
1G	1B-	[0.d	2b-\
.	.	.	2g/
0D	0A	.	2a/
.	.	.	2.f/
.	.	.	4e/
.	.	.	4d/
.	.	.	4c/
=50	=50	=50	=50
0GG	0G	1d]	2B-/
.	.	.	1d
.	.	2r	.
.	.	2.D/	4c/
.	.	.	4B-/
2.D\	[1F	.	2.A/
.	.	4E/	.
.	.	4F/	.
4C/	.	4G/	4B-/
=51	=51-	=51	=51
2AA/	1F]	2A/	2c/
2D\	.	2D/	2d/
2C/	1A	2r	2e/
2D\	.	1D	2f/
1GG	1B-	.	1g
.	.	2E/	.
=52	=52	=52	=52
1FF	1c	1F	1a
0GG	1B-	2D/	1.b-
.	.	2.G/	.
.	[1G	.	.
.	.	4A/	.
.	.	[2B-\	2a/
=53	=53-	=53	=53
1GG	1G]	4B-\]	1.g
.	.	4c\	.
.	.	1d	.
0D	0A	.	.
.	.	2D/	2f#i/
.	.	2r	1f#i
.	.	[2D/	.
=54	=54	=54	=54
2GG/	[0.Gl	2D/]	[0.gl
1C	.	2.E-i/	.
.	.	4C/	.
2BB-/	.	2D/	.
1C	.	1E-i	.
=55	=55-	=55	=55
0.GGl	0.G]	2D/	0.g]
.	.	[2D/l	.
.	.	0D]	.
*	*rscale:1	*	*
==	==	==	==
*-	*-	*-	*-
!!!RDF**kern: l=long note in original notation
!!!RDF**kern: i=editorial accidental
!!!RDF**kern: V=start of tuplet marker
!!!RDF**kern: Z=end of tuplet marker
!!!ENC:	Jesse Rodin; Victoria Chang 2012/01/27
!!!END:	2012/01/27/
!!!EED:	Jesse Rodin
!!!EEV: 2012/04/24/
!!attribution-level@Jos: 3 (tricky)
!!!ONB:	Translated from MusicXML and edited on 2012/03/22/ by Craig Sapp
!!muse2ps: T^@{OPR}^u^@{ONM}{. }@{OTL}^C^@{COA}?\n@{SCT}^i2I150v85,85,85,150Q16
